src/assets/images/currency/LINK.svg

<svg viewBox="0 0 37.8 43.6" xmlns="http://www.w3.org/2000/svg"><path d="m18.9 0-4 2.3-10.9 6.3-4 2.3v21.8l4 2.3 11 6.3 4 2.3 4-2.3 10.8-6.3 4-2.3v-21.8l-4-2.3-10.9-6.3zm-10.9 28.1v-12.6l10.9-6.3 10.9 6.3v12.6l-10.9 6.3z" fill="#2a5ada"/></svg>

<svg xmlns="http://www.w3.org/2000/svg" viewBox="0 0 37.8 43.6"><defs><style>.cls-1{fill:#2a5ada}</style></defs><title>Asset 1</title><g id="Layer_2" data-name="Layer 2"><g id="Layer_1-2" data-name="Layer 1"><path d="M18.9,0l-4,2.3L4,8.6,0,10.9V32.7L4,35l11,6.3,4,2.3,4-2.3L33.8,35l4-2.3V10.9l-4-2.3L22.9,2.3ZM8,28.1V15.5L18.9,9.2l10.9,6.3V28.1L18.9,34.4Z" class="cls-1"/></g></g></svg>
